src/img/light.svg

<svg width="100" height="100" viewBox="0 0 100 100" fill="none" xmlns="http://www.w3.org/2000/svg">
<path fill-rule="evenodd" clip-rule="evenodd" d="M17.5024 10C14.4697 10 12 12.5046 12 15.5852C12 18.6552 14.469 21.1532 17.5024 21.1532C19.9687 21.1532 22.0398 19.4796 22.726 17.1941L22.7836 17.0023L45.2765 17.1053L45.3412 17.2815C45.3656 17.3479 45.3912 17.4191 45.4176 17.4928C45.541 17.8366 45.6841 18.2355 45.8282 18.4736L46.0228 18.795L45.6587 18.8759C35.5107 21.1313 27.886 30.3177 27.886 41.2896C27.886 49.1194 31.7604 56.3275 38.2494 60.5717C40.2371 61.8728 41.4613 64.2574 41.4613 66.7916V68.3484L41.2892 68.4138C40.0411 68.8885 39.0876 69.9608 38.7659 71.2917L38.7164 71.4964H37.1411C36.3755 71.4964 35.7531 72.1266 35.7531 72.9058C35.7531 73.685 36.3755 74.3152 37.1411 74.3152H38.6371V76.7462H37.1411C36.3755 76.7462 35.7531 77.3764 35.7531 78.1556C35.7531 78.9349 36.3755 79.565 37.1411 79.565H38.7164L38.7659 79.7698C39.1749 81.4617 40.6088 82.732 42.3619 82.8848L42.5638 82.9023L42.6003 83.1038C43.3123 87.0321 46.5918 90 50.5145 90C54.423 90 57.6913 87.0327 58.4009 83.1038L58.4373 82.9022L58.6392 82.8846C60.392 82.7311 61.8252 81.4611 62.2341 79.7698L62.2836 79.565H63.8589C64.6245 79.565 65.2469 78.9349 65.2469 78.1556C65.2469 77.3764 64.6245 76.7462 63.8589 76.7462H62.3629V74.3152H63.8589C64.6245 74.3152 65.2469 73.685 65.2469 72.9058C65.2469 72.1266 64.6245 71.4964 63.8589 71.4964H62.2836L62.2341 71.2917C61.9124 69.9612 60.9593 68.8891 59.7115 68.4141L59.5395 68.3487V66.7916C59.5395 64.2583 60.7638 61.8727 62.7523 60.5717C69.2413 56.3267 73.1148 49.1194 73.1148 41.2896C73.1148 30.3223 65.4907 21.1392 55.3419 18.879L54.9782 18.7981L55.1724 18.4768C55.2641 18.3253 55.4205 18.0344 55.5572 17.7748C55.6248 17.6464 55.6865 17.5279 55.7313 17.4414L55.7843 17.3386L55.8779 17.156H78.2587L78.3193 17.3392C79.0514 19.5495 81.0924 21.1532 83.5137 21.1532C86.5376 21.1532 89 18.6559 89 15.5852C89 12.5039 86.5369 10 83.5137 10C80.9792 10 78.8568 11.7598 78.2232 14.1385L78.1703 14.3372H55.8358L55.783 14.1383C55.1512 11.7592 53.0346 10 50.5081 10C47.9769 10 45.8569 11.7556 45.2204 14.1296L45.1669 14.3292L22.7889 14.1834L22.7327 13.993C22.0531 11.6887 19.9762 10 17.5024 10ZM14.776 15.5852C14.776 14.0369 15.975 12.8188 17.5024 12.8188C19 12.8188 20.2127 14.0624 20.2127 15.5852C20.2127 17.1007 18.9983 18.3344 17.5024 18.3344C15.9993 18.3344 14.776 17.1024 14.776 15.5852ZM47.7817 15.5852C47.7817 14.0369 48.9807 12.8188 50.5081 12.8188C52.0057 12.8188 53.2183 14.0624 53.2183 15.5852C53.2183 17.1007 52.0039 18.3344 50.5081 18.3344C49.005 18.3344 47.7817 17.1024 47.7817 15.5852ZM80.7873 15.5852C80.7873 14.0369 81.9863 12.8188 83.5137 12.8188C85.0114 12.8188 86.224 14.0624 86.224 15.5852C86.224 17.1007 85.0096 18.3344 83.5137 18.3344C82.0107 18.3344 80.7873 17.1024 80.7873 15.5852ZM47.3181 21.4358L47.8922 21.3414L39.7263 34.7166C39.5212 35.0528 39.4643 35.4597 39.5695 35.8396L42.3772 46.0145L42.1454 46.0991C40.9703 46.5283 40.1259 47.6584 40.1259 48.9931V52.3488C40.1259 54.0522 41.4911 55.4361 43.1674 55.4361H57.8334C59.5098 55.4361 60.8749 54.0522 60.8749 52.3488V48.9931C60.8749 47.6584 60.0305 46.5283 58.8554 46.0991L58.6236 46.0145L61.4313 35.8398C61.457 35.7471 61.473 35.6523 61.4796 35.5578C61.4998 35.2652 61.4294 34.9709 61.2746 34.7175L53.1099 21.3431L53.6844 21.438C63.1124 22.9948 70.3388 31.2907 70.3388 41.2896C70.3388 48.1558 66.9403 54.4786 61.2484 58.2026C58.4441 60.0372 56.7635 63.2459 56.7635 66.7916V68.1317H44.2373V66.7916C44.2373 63.245 42.5575 60.0372 39.7533 58.2026C34.0605 54.4786 30.662 48.1558 30.662 41.2896C30.662 31.2858 37.8905 22.9865 47.3181 21.4358ZM51.8969 24.7057V34.0898L52.0191 34.1691C52.8044 34.678 53.3267 35.5618 53.3267 36.5698C53.3267 38.1478 52.0609 39.4309 50.5081 39.4309C48.9553 39.4309 47.6894 38.1478 47.6894 36.5698C47.6894 35.5613 48.2125 34.677 48.9985 34.1682L49.1209 34.089V24.679L42.4073 35.6759L45.2297 45.9059H55.7711L58.5935 35.6759L51.8969 24.7057ZM41.4131 72.2709C41.4131 71.5484 41.9928 70.9587 42.7072 70.9587H58.292C59.007 70.9587 59.5869 71.5483 59.5869 72.2709V78.7906C59.5869 79.5132 59.007 80.1028 58.292 80.1028H42.7072C41.9928 80.1028 41.4131 79.513 41.4131 78.7906V72.2709ZM45.4835 83.2716L45.3776 82.924H55.6243L55.519 83.2712C54.834 85.5286 52.8582 87.1812 50.5145 87.1812C48.1597 87.1812 46.1721 85.5297 45.4835 83.2716ZM42.9019 52.6173V48.7247H58.0989V52.6173H42.9019Z" fill="#616F8A"/>
</svg>

<svg width="100" height="100" fill="none" xmlns="http://www.w3.org/2000/svg"><path fill-rule="evenodd" clip-rule="evenodd" d="M17.502 10C14.47 10 12 12.505 12 15.585c0 3.07 2.469 5.568 5.502 5.568 2.467 0 4.538-1.673 5.224-3.959l.058-.192 22.492.103.065.177.077.21c.123.345.266.743.41.982l.195.321-.364.08C35.51 21.132 27.886 30.319 27.886 41.29c0 7.83 3.874 15.038 10.363 19.282 1.988 1.3 3.212 3.685 3.212 6.22v1.556l-.172.066a4.109 4.109 0 0 0-2.523 2.878l-.05.204h-1.575c-.765 0-1.388.63-1.388 1.41 0 .779.623 1.41 1.388 1.41h1.496v2.43h-1.496c-.765 0-1.388.63-1.388 1.41 0 .779.623 1.409 1.388 1.409h1.575l.05.205a4.075 4.075 0 0 0 3.596 3.115l.202.017.036.202C43.312 87.032 46.592 90 50.514 90c3.909 0 7.177-2.967 7.887-6.896l.036-.202.202-.017a4.076 4.076 0 0 0 3.595-3.115l.05-.205h1.575c.765 0 1.388-.63 1.388-1.41 0-.779-.623-1.409-1.388-1.409h-1.496v-2.43h1.496c.765 0 1.388-.631 1.388-1.41 0-.78-.623-1.41-1.388-1.41h-1.575l-.05-.204a4.11 4.11 0 0 0-2.523-2.878l-.172-.065v-1.557c0-2.534 1.225-4.92 3.213-6.22 6.49-4.245 10.363-11.453 10.363-19.282 0-10.968-7.624-20.15-17.773-22.411l-.364-.08.194-.322c.092-.152.248-.443.385-.702a57.3 57.3 0 0 0 .174-.334l.053-.102.094-.183h22.38l.061.183c.732 2.21 2.773 3.814 5.195 3.814 3.024 0 5.486-2.497 5.486-5.568C89 12.504 86.537 10 83.514 10c-2.535 0-4.657 1.76-5.29 4.139l-.054.198H55.836l-.053-.199C55.151 11.76 53.035 10 50.508 10c-2.531 0-4.651 1.756-5.288 4.13l-.053.2-22.378-.147-.056-.19c-.68-2.304-2.757-3.993-5.23-3.993zm-2.726 5.585c0-1.548 1.199-2.766 2.726-2.766 1.498 0 2.71 1.243 2.71 2.766 0 1.516-1.214 2.75-2.71 2.75-1.503 0-2.726-1.233-2.726-2.75zm33.006 0c0-1.548 1.199-2.766 2.726-2.766 1.498 0 2.71 1.243 2.71 2.766 0 1.516-1.214 2.75-2.71 2.75-1.503 0-2.726-1.233-2.726-2.75zm33.005 0c0-1.548 1.2-2.766 2.727-2.766 1.497 0 2.71 1.243 2.71 2.766 0 1.516-1.214 2.75-2.71 2.75-1.503 0-2.727-1.233-2.727-2.75zm-33.469 5.85l.574-.094-8.166 13.376a1.426 1.426 0 0 0-.157 1.123l2.808 10.174-.232.085a3.079 3.079 0 0 0-2.02 2.894v3.356c0 1.703 1.366 3.087 3.042 3.087h14.666c1.677 0 3.042-1.384 3.042-3.087v-3.356a3.079 3.079 0 0 0-2.02-2.894l-.231-.084L61.43 35.84a1.43 1.43 0 0 0-.156-1.123L53.11 21.343l.574.095c9.428 1.557 16.655 9.853 16.655 19.852 0 6.866-3.399 13.189-9.09 16.913-2.805 1.834-4.486 5.043-4.486 8.589v1.34H44.237v-1.34c0-3.547-1.68-6.755-4.484-8.59-5.693-3.723-9.091-10.046-9.091-16.912 0-10.004 7.229-18.303 16.656-19.854zm4.579 3.27v9.385l.122.08a2.857 2.857 0 0 1 1.308 2.4c0 1.578-1.266 2.86-2.819 2.86s-2.819-1.282-2.819-2.86c0-1.009.523-1.893 1.31-2.402l.122-.079v-9.41l-6.714 10.997 2.823 10.23H55.77l2.822-10.23-6.696-10.97zM41.413 72.272c0-.723.58-1.312 1.294-1.312h15.585c.715 0 1.295.59 1.295 1.312v6.52c0 .722-.58 1.312-1.295 1.312H42.707c-.714 0-1.294-.59-1.294-1.312v-6.52zm4.07 11l-.105-.347h10.246l-.105.347c-.685 2.258-2.66 3.91-5.005 3.91-2.354 0-4.342-1.651-5.03-3.91zm-2.581-30.654v-3.892h15.197v3.892H42.902z" fill="#616F8A"/></svg>
